X:197
T:Loving Susee. JJo8.197
%%VWML:JohnsonVol8-2184-p99-0
F:http://www.vwml.org/record/JohnsonVol8/2184/p99
Z:Transcribed by Simon Furey and Lewis Jones
Z:vmp.Simon Wilson 2013 www.village-music-project.org.uk
Z:Dance added by John Chambers 2017
M:2/4
L:1/8
%Q:1/2=80
K:D
|:\
d2(c/d/e) | dAFD | f2(e/f/g) | fdAF |\
a2(g/a/b) | acdg | (f/g/a) gf | fez2 |
d2(c/d/e) | dAFD | f2(e/f/g) | fdAF |\
a2(g/a/b) | (ac)(dg) | fdec | d2D2 :|
|:\
f2(e/f/g) | f<dc<B | g<ed<c | T(B>^A)B2 |\
e2(d/e/f) | e<cB<A | f<dc<B | A^GA2 |
d2c/d/e | dAFD | f2e/f/g | fdAF |\
a2g/a/b | acdg | fdec | d2D2 :|
W: The 1st Cu. gallop down and up and cast off
W:foot it and turn .| the 2d Cu. do the same ..|
W:cross over two Cu. lead up to the Top foot
W:it and cast off .| Back to Back with your
W:Partner and Right and Left at Top ..|
W:
T:Lady Cordelia's Jigg. JJo8.198
B:J.Johnson Choice Collection Vol 8 1758
Z:vmp.Simon Wilson 2013 www.village-music-project.org.uk
Z:Dance added by John Chambers 2017
M:6/8
L:1/8
%Q:3/8=100
K:F
|:\
B3 F2f | edcd3 | ge2 fd2 | ecB AGF |\
B3 F2f | edcd3 | bg2 a2f | abg f3 :|
|:\
c3 F2f | edcd3 | (c/d/e)c (g/a/b)B | (A/B/c)A F2E |\
DFB FBd | (g/a/b)g f2e | dcB FBA | B3 B,3 :|
W: The 1st Cu. cast off one Cu. and
W:cross over the 3d Cu .| then cast
W:up and cross up the 2d Cu. ..|
W:cross over half figure .| and
W:Right and left at Top ..|
W:
